!!!SOCIAL_FUNCTION:	oil potlatch songs
!!!PDT:	1939
!!!OTL: No_9_Song_of_the_Oil_Potlatch.krn
!!!LANG: Non-Tone
!!!LING_GROUP: Wakashan
!!!REG: Pacific Northwest
**kern
*staff1
=1-
*clefF4
*k[f#c#g#]
*M2/4
4r
4A\
=2
[2A\
=3
4.A\]
8F#\
=4||
*M3/4
4A\
4r
4A\
=5||
*M2/4
[2A\
=6
4.A\]
8G#\
=7
2A\
=8
8B\L
8A\J
8r
16r
16G#\
=9
4A\
8A\
16r
16G#\
=10
8.A\L
16B\Jk
8A\
8r
=11||
*M3/4
4A\
4r
4A\
=12||
*M2/4
[2A\
=13
4.A\]
8G#\
=14||
*M3/4
4A\
4r
4A\
=15||
*M2/4
[2A\
=16
4.A\]
8G#\
=17
2A\
=18
8B\L
8A\J
8r
16r
16G#\
=19
4A\
8A\
16r
16G#\
=20
8.A\L
16B\Jk
8A\
8r
=21
4A\
4r
==
*-
